X:1
T:The Little Missionary
T:The Little Missionary
T:James Ramsey Murray
T:James Ramsey Murray, 1883
T:Public Domain Courtesy of the Cyber Hymnal™
T:Public Domain Courtesy of the Cyber Hymnal™
C:James Ramsey Murray
Z:Public Domain
Z:Courtesy of the Cyber Hymnal™
%%score ( 1 2 ) ( 3 4 )
L:1/8
Q:1/4=83
M:2/4
K:Bb
V:1 treble 
V:2 treble 
V:3 bass 
V:4 bass 
V:1
 [DF] | [DF][DB] [DB][DA] | [Ec][EB] [EB][EG] | [DF][EG] [DF][CE] | [B,D]3 [CE] | %5
w: 1.~I|need not go to|In- di- a, To|Chi- na or Ja-|pan; To|
w: 2.~The|lit- tle wa- ter|drops come down To|make the flow- ers|grow; The|
w: 3.~I’ll|be a mis- sion-|a- ry now, And|work the best I|may, For|
 [DF][DB] [DB][DA] | [Ec][EB] [EB][EG] | [DF][DB] [Ec][Fd] | [DB]3 [Fd] | [Fc][FA] [EG][EF] | %10
w: work for Je- sus|here at home I’ll|do the best I|can; I’ll|tell of His great|
w: lit- tle riv- u-|lets flow on To|bless wher- e’er they|go; The|lit- tle seeds make|
w: if I want to|work for God, There|sure- ly is a|way; I’ll|pray for those who|
 [EG][DF] [DF][DF] | [B,D][DF] [FB][Fd] | [Fc]3 [Fc] | [Fd][Ec] [DB]F | [EA][EG] [EG][EG] | %15
w: love for me, And|how I love Him,|too, And|bet- ter far, I’ll|show my love In|
w: might- y trees, To|cool us with their|shade, If|lit- tle things like|these do good, To|
w: cross the sea, My|of- fering, too, I’ll|send, And|do all that is|in my power, This|
 [DF][DB] [Ec][Fd] | [DB]3 ||"^Refrain" [DF] | [Fd]>[Fd] [Ec][FB] | [GB] [EG]2 [EG] | %20
w: all that I may|do.||||
w: try, I’m not a-|fraid.|We|all may work for|Je- sus, Wher-|
w: great bad world to|mend.||||
 [=Ec]>[Ec] [Fc][GB] | [FA]3 [_EF] | [Fd]>[Fd] [Ec][FB] | [GB] [EG]2 [EG] | [DF][DB] [Ec][Fd] | %25
w: |||||
w: ev- er we may|be; I’ll|try to work for|Je- sus, Who|did so much for|
w: |||||
 [DB]3 |] %26
w: |
w: me.|
w: |
V:2
 x | x4 | x4 | x4 | x4 | x4 | x4 | x4 | x4 | x4 | x4 | x4 | x4 | x3 F | x4 | x4 | x3 || x | x4 | %19
 x4 | x4 | x4 | x4 | x4 | x4 | x3 |] %26
V:3
 [B,,B,] | [B,,B,][B,,F,] [B,,F,][B,,F,] | [E,G,][E,G,] [E,G,][E,B,] | [F,B,][F,A,] [F,B,][F,A,] | %4
 [B,,F,]3 [B,,F,] | [B,,B,][B,,F,] [B,,F,][B,,F,] | [E,G,][E,G,] [E,G,][E,B,] | [F,B,]F, F,F, | %8
 [B,,F,]3 [B,,B,] | [F,A,][F,C] [F,A,][F,A,] | [B,,B,][B,,B,] [B,,B,][B,,F,] | %11
 [B,,F,][B,,B,] [D,B,][B,,B,] | [F,A,]3 [F,A,] | B,[F,A,] [G,B,][D,A,] | %14
 [E,B,][E,B,] [E,B,][E,B,] | F,F, F,F, | [B,,F,]3 || [B,,B,] | [B,,B,]>[B,,B,] [C,A,][D,B,] | %19
 [E,B,] [E,B,]2 [E,B,] | [C,B,]>[C,C] [D,C][=E,C] | [F,C]3 [F,A,] | [B,,B,]>[B,,B,] [C,A,][D,B,] | %23
 [E,B,] [E,B,]2 [E,B,] | [F,B,]F, F,F, | [B,,F,]3 |] %26
V:4
 x | x4 | x4 | x4 | x4 | x4 | x4 | x F, F,F, | x4 | x4 | x4 | x4 | x4 | B, x3 | x4 | F,F, F,F, | %16
 x3 || x | x4 | x4 | x4 | x4 | x4 | x4 | x F, F,F, | x3 |] %26

